content/terraform-docs-agents/v1.6.x/img/telemetry-arch.svg

<svg xmlns="http://www.w3.org/2000/svg" xmlns:xlink="http://www.w3.org/1999/xlink" width="2049" height="1395" viewBox="-.5 -.5 2049 1395">
  <rect width="560.65" height="278.01" y="370.68" fill="#d5e8d4" stroke="#82b366" stroke-width="4.63" pointer-events="all" rx="41.7" ry="41.7"/>
  <switch transform="translate(-.5 -.5) scale(4.6335)">
    <foreignObject width="100%" height="100%" overflow="visible" pointer-events="none" requiredFeatures="http://www.w3.org/TR/SVG11/feature#Extensibility" style="text-align:left">
      <div xmlns="http://www.w3.org/1999/xhtml" display="flex" style="align-items:unsafe center;justify-content:unsafe center;width:119px;height:1px;padding-top:110px;margin-left:1px">
        <div data-drawio-colors="color: rgb(0, 0, 0);" font-size="0" style="box-sizing:border-box;text-align:center">
          <div color="#000" display="inline-block" font-family="Helvetica" font-size="12" pointer-events="all" style="line-height:1.2;white-space:normal;overflow-wrap:normal">
            Terraform Cloud Agent
          </div>
        </div>
      </div>
    </foreignObject>
    <text x="61" y="114" font-family="Helvetica" font-size="12" text-anchor="middle">Terraform Cloud Agent</text>
  </switch>
  <rect width="560.65" height="278.01" x="741.36" y="556.02" fill="#e1d5e7" stroke="#9673a6" stroke-width="4.63" pointer-events="all" rx="41.7" ry="41.7"/>
  <switch transform="translate(-.5 -.5) scale(4.6335)">
    <foreignObject width="100%" height="100%" overflow="visible" pointer-events="none" requiredFeatures="http://www.w3.org/TR/SVG11/feature#Extensibility" style="text-align:left">
      <div xmlns="http://www.w3.org/1999/xhtml" display="flex" style="align-items:unsafe center;justify-content:unsafe center;width:119px;height:1px;padding-top:150px;margin-left:161px">
        <div data-drawio-colors="color: rgb(0, 0, 0);" font-size="0" style="box-sizing:border-box;text-align:center">
          <div color="#000" display="inline-block" font-family="Helvetica" font-size="12" pointer-events="all" style="line-height:1.2;white-space:normal;overflow-wrap:normal">
            OpenTelemetry Collector
          </div>
        </div>
      </div>
    </foreignObject>
    <text x="221" y="154" font-family="Helvetica" font-size="12" text-anchor="middle">OpenTelemetry Collec...</text>
  </switch>
  <rect width="560.65" height="278.01" x="1482.72" fill="#dae8fc" stroke="#6c8ebf" stroke-width="4.63" pointer-events="all" rx="41.7" ry="41.7"/>
  <switch transform="translate(-.5 -.5) scale(4.6335)">
    <foreignObject width="100%" height="100%" overflow="visible" pointer-events="none" requiredFeatures="http://www.w3.org/TR/SVG11/feature#Extensibility" style="text-align:left">
      <div xmlns="http://www.w3.org/1999/xhtml" display="flex" style="align-items:unsafe center;justify-content:unsafe center;width:119px;height:1px;padding-top:30px;margin-left:321px">
        <div data-drawio-colors="color: rgb(0, 0, 0);" font-size="0" style="box-sizing:border-box;text-align:center">
          <div color="#000" display="inline-block" font-family="Helvetica" font-size="12" pointer-events="all" style="line-height:1.2;white-space:normal;overflow-wrap:normal">
            DataDog
          </div>
        </div>
      </div>
    </foreignObject>
    <text x="381" y="34" font-family="Helvetica" font-size="12" text-anchor="middle">DataDog</text>
  </switch>
  <rect width="560.65" height="278.01" x="1482.72" y="370.68" fill="#dae8fc" stroke="#6c8ebf" stroke-width="4.63" pointer-events="all" rx="41.7" ry="41.7"/>
  <switch transform="translate(-.5 -.5) scale(4.6335)">
    <foreignObject width="100%" height="100%" overflow="visible" pointer-events="none" requiredFeatures="http://www.w3.org/TR/SVG11/feature#Extensibility" style="text-align:left">
      <div xmlns="http://www.w3.org/1999/xhtml" display="flex" style="align-items:unsafe center;justify-content:unsafe center;width:119px;height:1px;padding-top:110px;margin-left:321px">
        <div data-drawio-colors="color: rgb(0, 0, 0);" font-size="0" style="box-sizing:border-box;text-align:center">
          <div color="#000" display="inline-block" font-family="Helvetica" font-size="12" pointer-events="all" style="line-height:1.2;white-space:normal;overflow-wrap:normal">
            Honeycomb
          </div>
        </div>
      </div>
    </foreignObject>
    <text x="381" y="114" font-family="Helvetica" font-size="12" text-anchor="middle">Honeycomb</text>
  </switch>
  <rect width="560.65" height="278.01" x="1482.72" y="741.36" fill="#dae8fc" stroke="#6c8ebf" stroke-width="4.63" pointer-events="all" rx="41.7" ry="41.7"/>
  <switch transform="translate(-.5 -.5) scale(4.6335)">
    <foreignObject width="100%" height="100%" overflow="visible" pointer-events="none" requiredFeatures="http://www.w3.org/TR/SVG11/feature#Extensibility" style="text-align:left">
      <div xmlns="http://www.w3.org/1999/xhtml" display="flex" style="align-items:unsafe center;justify-content:unsafe center;width:119px;height:1px;padding-top:190px;margin-left:321px">
        <div data-drawio-colors="color: rgb(0, 0, 0);" font-size="0" style="box-sizing:border-box;text-align:center">
          <div color="#000" display="inline-block" font-family="Helvetica" font-size="12" pointer-events="all" style="line-height:1.2;white-space:normal;overflow-wrap:normal">
            Prometheus
          </div>
        </div>
      </div>
    </foreignObject>
    <text x="381" y="194" font-family="Helvetica" font-size="12" text-anchor="middle">Prometheus</text>
  </switch>
  <path fill="none" stroke="#000" stroke-miterlimit="10" stroke-width="4.63" d="m1297.38 695.03 173.36-390.06" pointer-events="stroke"/>
  <path stroke="#000" stroke-miterlimit="10" stroke-width="4.63" d="m1480.62 282.74 1.64 36.23-11.52-14-18.12.83Z" pointer-events="all"/>
  <path fill="none" stroke="#000" stroke-miterlimit="10" stroke-width="4.63" d="m1302.01 695.03 160.11-164.22" pointer-events="stroke"/>
  <path stroke="#000" stroke-miterlimit="10" stroke-width="4.63" d="m1479.1 513.39-11.03 34.55-5.95-17.13-17.27-5.51Z" pointer-events="all"/>
  <path fill="none" stroke="#000" stroke-miterlimit="10" stroke-width="4.63" d="m1302.01 695.03 160.11 164.21" pointer-events="stroke"/>
  <path stroke="#000" stroke-miterlimit="10" stroke-width="4.63" d="m1479.1 876.66-34.25-11.91 17.27-5.51 5.95-17.13Z" pointer-events="all"/>
  <rect width="560.65" height="278.01" y="741.36" fill="#d5e8d4" stroke="#82b366" stroke-width="4.63" pointer-events="all" rx="41.7" ry="41.7"/>
  <switch transform="translate(-.5 -.5) scale(4.6335)">
    <foreignObject width="100%" height="100%" overflow="visible" pointer-events="none" requiredFeatures="http://www.w3.org/TR/SVG11/feature#Extensibility" style="text-align:left">
      <div xmlns="http://www.w3.org/1999/xhtml" display="flex" style="align-items:unsafe center;justify-content:unsafe center;width:119px;height:1px;padding-top:190px;margin-left:1px">
        <div data-drawio-colors="color: rgb(0, 0, 0);" font-size="0" style="box-sizing:border-box;text-align:center">
          <div color="#000" display="inline-block" font-family="Helvetica" font-size="12" pointer-events="all" style="line-height:1.2;white-space:normal;overflow-wrap:normal">
            Terraform Cloud Agent
          </div>
        </div>
      </div>
    </foreignObject>
    <text x="61" y="194" font-family="Helvetica" font-size="12" text-anchor="middle">Terraform Cloud Agent</text>
  </switch>
  <path fill="none" stroke="#000" stroke-miterlimit="10" stroke-width="4.63" d="m560.65 509.69 155.87 99.91" pointer-events="stroke"/>
  <path stroke="#000" stroke-miterlimit="10" stroke-width="4.63" d="m737 622.73-36.06-3.85 15.58-9.28 1.92-18.03Z" pointer-events="all"/>
  <path fill="none" stroke="#000" stroke-miterlimit="10" stroke-width="4.63" d="m560.65 880.37 155.87-99.92" pointer-events="stroke"/>
  <path stroke="#000" stroke-miterlimit="10" stroke-width="4.63" d="m737 767.32-18.56 31.16-1.92-18.03-15.58-9.28Z" pointer-events="all"/>
  <rect width="560.65" height="278.01" x="1482.72" y="1112.04" fill="#dae8fc" stroke="#6c8ebf" stroke-width="4.63" pointer-events="all" rx="41.7" ry="41.7"/>
  <switch transform="translate(-.5 -.5) scale(4.6335)">
    <foreignObject width="100%" height="100%" overflow="visible" pointer-events="none" requiredFeatures="http://www.w3.org/TR/SVG11/feature#Extensibility" style="text-align:left">
      <div xmlns="http://www.w3.org/1999/xhtml" display="flex" style="align-items:unsafe center;justify-content:unsafe center;width:119px;height:1px;padding-top:270px;margin-left:321px">
        <div data-drawio-colors="color: rgb(0, 0, 0);" font-size="0" style="box-sizing:border-box;text-align:center">
          <div color="#000" display="inline-block" font-family="Helvetica" font-size="12" pointer-events="all" style="line-height:1.2;white-space:normal;overflow-wrap:normal">
            ...
          </div>
        </div>
      </div>
    </foreignObject>
    <text x="381" y="274" font-family="Helvetica" font-size="12" text-anchor="middle">...</text>
  </switch>
  <path fill="none" stroke="#000" stroke-miterlimit="10" stroke-width="4.63" d="m1297.38 695.03 173.36 390.05" pointer-events="stroke"/>
  <path stroke="#000" stroke-miterlimit="10" stroke-width="4.63" d="m1480.62 1107.31-28-23.06 18.12.83 11.52-14Z" pointer-events="all"/>
  <switch>
    <a xlink:href="https://www.diagrams.net/doc/faq/svg-export-text-problems" target="_blank" transform="translate(0 -5)">
      <text x="50%" y="100%" font-size="10" text-anchor="middle">Text is not SVG - cannot display</text>
    </a>
  </switch>
</svg>

<svg xmlns="http://www.w3.org/2000/svg" xmlns:xlink="http://www.w3.org/1999/xlink" version="1.1" width="2049px" height="1395px" viewBox="-0.5 -0.5 2049 1395"><defs/><g><rect x="0" y="370.68" width="560.65" height="278.01" rx="41.7" ry="41.7" fill="#d5e8d4" stroke="#82b366" stroke-width="4.63" pointer-events="all"/><g transform="translate(-0.5 -0.5)scale(4.633500000000001)"><switch><foreignObject pointer-events="none" width="100%" height="100%" requiredFeatures="http://www.w3.org/TR/SVG11/feature#Extensibility" style="overflow: visible; text-align: left;"><div xmlns="http://www.w3.org/1999/xhtml" style="display: flex; align-items: unsafe center; justify-content: unsafe center; width: 119px; height: 1px; padding-top: 110px; margin-left: 1px;"><div data-drawio-colors="color: rgb(0, 0, 0); " style="box-sizing: border-box; font-size: 0px; text-align: center;"><div style="display: inline-block; font-size: 12px; font-family: Helvetica; color: rgb(0, 0, 0); line-height: 1.2; pointer-events: all; white-space: normal; overflow-wrap: normal;">Terraform Cloud Agent</div></div></div></foreignObject><text x="61" y="114" fill="rgb(0, 0, 0)" font-family="Helvetica" font-size="12px" text-anchor="middle">Terraform Cloud Agent</text></switch></g><rect x="741.36" y="556.02" width="560.65" height="278.01" rx="41.7" ry="41.7" fill="#e1d5e7" stroke="#9673a6" stroke-width="4.63" pointer-events="all"/><g transform="translate(-0.5 -0.5)scale(4.633500000000001)"><switch><foreignObject pointer-events="none" width="100%" height="100%" requiredFeatures="http://www.w3.org/TR/SVG11/feature#Extensibility" style="overflow: visible; text-align: left;"><div xmlns="http://www.w3.org/1999/xhtml" style="display: flex; align-items: unsafe center; justify-content: unsafe center; width: 119px; height: 1px; padding-top: 150px; margin-left: 161px;"><div data-drawio-colors="color: rgb(0, 0, 0); " style="box-sizing: border-box; font-size: 0px; text-align: center;"><div style="display: inline-block; font-size: 12px; font-family: Helvetica; color: rgb(0, 0, 0); line-height: 1.2; pointer-events: all; white-space: normal; overflow-wrap: normal;">OpenTelemetry Collector</div></div></div></foreignObject><text x="221" y="154" fill="rgb(0, 0, 0)" font-family="Helvetica" font-size="12px" text-anchor="middle">OpenTelemetry Collec...</text></switch></g><rect x="1482.72" y="0" width="560.65" height="278.01" rx="41.7" ry="41.7" fill="#dae8fc" stroke="#6c8ebf" stroke-width="4.63" pointer-events="all"/><g transform="translate(-0.5 -0.5)scale(4.633500000000001)"><switch><foreignObject pointer-events="none" width="100%" height="100%" requiredFeatures="http://www.w3.org/TR/SVG11/feature#Extensibility" style="overflow: visible; text-align: left;"><div xmlns="http://www.w3.org/1999/xhtml" style="display: flex; align-items: unsafe center; justify-content: unsafe center; width: 119px; height: 1px; padding-top: 30px; margin-left: 321px;"><div data-drawio-colors="color: rgb(0, 0, 0); " style="box-sizing: border-box; font-size: 0px; text-align: center;"><div style="display: inline-block; font-size: 12px; font-family: Helvetica; color: rgb(0, 0, 0); line-height: 1.2; pointer-events: all; white-space: normal; overflow-wrap: normal;">DataDog</div></div></div></foreignObject><text x="381" y="34" fill="rgb(0, 0, 0)" font-family="Helvetica" font-size="12px" text-anchor="middle">DataDog</text></switch></g><rect x="1482.72" y="370.68" width="560.65" height="278.01" rx="41.7" ry="41.7" fill="#dae8fc" stroke="#6c8ebf" stroke-width="4.63" pointer-events="all"/><g transform="translate(-0.5 -0.5)scale(4.633500000000001)"><switch><foreignObject pointer-events="none" width="100%" height="100%" requiredFeatures="http://www.w3.org/TR/SVG11/feature#Extensibility" style="overflow: visible; text-align: left;"><div xmlns="http://www.w3.org/1999/xhtml" style="display: flex; align-items: unsafe center; justify-content: unsafe center; width: 119px; height: 1px; padding-top: 110px; margin-left: 321px;"><div data-drawio-colors="color: rgb(0, 0, 0); " style="box-sizing: border-box; font-size: 0px; text-align: center;"><div style="display: inline-block; font-size: 12px; font-family: Helvetica; color: rgb(0, 0, 0); line-height: 1.2; pointer-events: all; white-space: normal; overflow-wrap: normal;">Honeycomb</div></div></div></foreignObject><text x="381" y="114" fill="rgb(0, 0, 0)" font-family="Helvetica" font-size="12px" text-anchor="middle">Honeycomb</text></switch></g><rect x="1482.72" y="741.36" width="560.65" height="278.01" rx="41.7" ry="41.7" fill="#dae8fc" stroke="#6c8ebf" stroke-width="4.63" pointer-events="all"/><g transform="translate(-0.5 -0.5)scale(4.633500000000001)"><switch><foreignObject pointer-events="none" width="100%" height="100%" requiredFeatures="http://www.w3.org/TR/SVG11/feature#Extensibility" style="overflow: visible; text-align: left;"><div xmlns="http://www.w3.org/1999/xhtml" style="display: flex; align-items: unsafe center; justify-content: unsafe center; width: 119px; height: 1px; padding-top: 190px; margin-left: 321px;"><div data-drawio-colors="color: rgb(0, 0, 0); " style="box-sizing: border-box; font-size: 0px; text-align: center;"><div style="display: inline-block; font-size: 12px; font-family: Helvetica; color: rgb(0, 0, 0); line-height: 1.2; pointer-events: all; white-space: normal; overflow-wrap: normal;">Prometheus</div></div></div></foreignObject><text x="381" y="194" fill="rgb(0, 0, 0)" font-family="Helvetica" font-size="12px" text-anchor="middle">Prometheus</text></switch></g><path d="M 1297.38 695.03 L 1470.74 304.97" fill="none" stroke="rgb(0, 0, 0)" stroke-width="4.63" stroke-miterlimit="10" pointer-events="stroke"/><path d="M 1480.62 282.74 L 1482.26 318.97 L 1470.74 304.97 L 1452.62 305.8 Z" fill="rgb(0, 0, 0)" stroke="rgb(0, 0, 0)" stroke-width="4.63" stroke-miterlimit="10" pointer-events="all"/><path d="M 1302.01 695.03 L 1462.12 530.81" fill="none" stroke="rgb(0, 0, 0)" stroke-width="4.63" stroke-miterlimit="10" pointer-events="stroke"/><path d="M 1479.1 513.39 L 1468.07 547.94 L 1462.12 530.81 L 1444.85 525.3 Z" fill="rgb(0, 0, 0)" stroke="rgb(0, 0, 0)" stroke-width="4.63" stroke-miterlimit="10" pointer-events="all"/><path d="M 1302.01 695.03 L 1462.12 859.24" fill="none" stroke="rgb(0, 0, 0)" stroke-width="4.63" stroke-miterlimit="10" pointer-events="stroke"/><path d="M 1479.1 876.66 L 1444.85 864.75 L 1462.12 859.24 L 1468.07 842.11 Z" fill="rgb(0, 0, 0)" stroke="rgb(0, 0, 0)" stroke-width="4.63" stroke-miterlimit="10" pointer-events="all"/><rect x="0" y="741.36" width="560.65" height="278.01" rx="41.7" ry="41.7" fill="#d5e8d4" stroke="#82b366" stroke-width="4.63" pointer-events="all"/><g transform="translate(-0.5 -0.5)scale(4.633500000000001)"><switch><foreignObject pointer-events="none" width="100%" height="100%" requiredFeatures="http://www.w3.org/TR/SVG11/feature#Extensibility" style="overflow: visible; text-align: left;"><div xmlns="http://www.w3.org/1999/xhtml" style="display: flex; align-items: unsafe center; justify-content: unsafe center; width: 119px; height: 1px; padding-top: 190px; margin-left: 1px;"><div data-drawio-colors="color: rgb(0, 0, 0); " style="box-sizing: border-box; font-size: 0px; text-align: center;"><div style="display: inline-block; font-size: 12px; font-family: Helvetica; color: rgb(0, 0, 0); line-height: 1.2; pointer-events: all; white-space: normal; overflow-wrap: normal;">Terraform Cloud Agent</div></div></div></foreignObject><text x="61" y="194" fill="rgb(0, 0, 0)" font-family="Helvetica" font-size="12px" text-anchor="middle">Terraform Cloud Agent</text></switch></g><path d="M 560.65 509.69 L 716.52 609.6" fill="none" stroke="rgb(0, 0, 0)" stroke-width="4.63" stroke-miterlimit="10" pointer-events="stroke"/><path d="M 737 622.73 L 700.94 618.88 L 716.52 609.6 L 718.44 591.57 Z" fill="rgb(0, 0, 0)" stroke="rgb(0, 0, 0)" stroke-width="4.63" stroke-miterlimit="10" pointer-events="all"/><path d="M 560.65 880.37 L 716.52 780.45" fill="none" stroke="rgb(0, 0, 0)" stroke-width="4.63" stroke-miterlimit="10" pointer-events="stroke"/><path d="M 737 767.32 L 718.44 798.48 L 716.52 780.45 L 700.94 771.17 Z" fill="rgb(0, 0, 0)" stroke="rgb(0, 0, 0)" stroke-width="4.63" stroke-miterlimit="10" pointer-events="all"/><rect x="1482.72" y="1112.04" width="560.65" height="278.01" rx="41.7" ry="41.7" fill="#dae8fc" stroke="#6c8ebf" stroke-width="4.63" pointer-events="all"/><g transform="translate(-0.5 -0.5)scale(4.633500000000001)"><switch><foreignObject pointer-events="none" width="100%" height="100%" requiredFeatures="http://www.w3.org/TR/SVG11/feature#Extensibility" style="overflow: visible; text-align: left;"><div xmlns="http://www.w3.org/1999/xhtml" style="display: flex; align-items: unsafe center; justify-content: unsafe center; width: 119px; height: 1px; padding-top: 270px; margin-left: 321px;"><div data-drawio-colors="color: rgb(0, 0, 0); " style="box-sizing: border-box; font-size: 0px; text-align: center;"><div style="display: inline-block; font-size: 12px; font-family: Helvetica; color: rgb(0, 0, 0); line-height: 1.2; pointer-events: all; white-space: normal; overflow-wrap: normal;">...</div></div></div></foreignObject><text x="381" y="274" fill="rgb(0, 0, 0)" font-family="Helvetica" font-size="12px" text-anchor="middle">...</text></switch></g><path d="M 1297.38 695.03 L 1470.74 1085.08" fill="none" stroke="rgb(0, 0, 0)" stroke-width="4.63" stroke-miterlimit="10" pointer-events="stroke"/><path d="M 1480.62 1107.31 L 1452.62 1084.25 L 1470.74 1085.08 L 1482.26 1071.08 Z" fill="rgb(0, 0, 0)" stroke="rgb(0, 0, 0)" stroke-width="4.63" stroke-miterlimit="10" pointer-events="all"/></g><switch><g requiredFeatures="http://www.w3.org/TR/SVG11/feature#Extensibility"/><a transform="translate(0,-5)" xlink:href="https://www.diagrams.net/doc/faq/svg-export-text-problems" target="_blank"><text text-anchor="middle" font-size="10px" x="50%" y="100%">Text is not SVG - cannot display</text></a></switch></svg>
